usr/share/icons/big-icons/symbolic/actions/tool-tweak.svg

<svg xmlns="http://www.w3.org/2000/svg" viewBox="0 0 16 16">
  <defs id="defs3051">
    <style type="text/css" id="current-color-scheme">
      .ColorScheme-Text {
        color:#eff0f1;
      }
      </style>
  </defs>
 <path style="fill:currentColor;fill-opacity:1;stroke:none" 
       d="M 9.0078125 2.0019531 C 7.3410425 1.9616531 6.1895594 2.7637875 5.5371094 3.8984375 C 4.8846694 5.0330975 4.6432856 6.4629313 4.4785156 7.8632812 C 4.3137456 9.2636214 4.2315862 10.646281 4.0039062 11.619141 C 3.8900663 12.105561 3.7368325 12.480966 3.5703125 12.697266 C 3.4037825 12.913566 3.2675544 12.99459 2.9902344 13 L 2.6171875 13 L 2 13 L 2 14 L 2.6171875 14 L 3 14 L 3.0039062 14 L 3.0097656 14 C 3.5655456 13.9891 4.0521981 13.708171 4.3613281 13.306641 C 4.6704681 12.905101 4.8456825 12.406876 4.9765625 11.847656 C 5.2383125 10.729216 5.3107231 9.3381256 5.4707031 7.9785156 C 5.6306731 6.6189056 5.8846069 5.3022375 6.4042969 4.3984375 C 6.9239925 3.4946475 7.619535 2.96704 8.984375 3 L 8.9902344 3 L 8.9960938 3 C 11.314413 2.99958 12.197416 4.06974 12.648438 5.1875 C 12.978127 6.00457 12.91055 6.45444 12.90625 6.84375 C 11.41986 6.38851 10.178014 6.3239656 9.3085938 6.7597656 C 8.2796336 7.2755456 7.7867794 8.3255081 7.7558594 9.3925781 C 7.7249594 10.459658 8.1105606 11.584463 8.8378906 12.470703 C 9.5652206 13.356943 10.66494 14.00053 12 14 C 13.030591 14.0099 13.453486 14.0033 14 14 L 14 13 C 13.456391 13.0033 13.03106 13.0099 12.003906 13 L 12.001953 13 L 12 13 C 10.98049 13.00041 10.181248 12.530375 9.6113281 11.835938 C 9.0414081 11.141496 8.7307962 10.217772 8.7539062 9.4199219 C 9.1458325 6.7112067 12.37145 7.5538379 14 8 L 13.998047 7.546875 C 13.998047 7.546875 14.133812 6.19451 13.576172 4.8125 C 13.019452 3.43279 11.652462 2.0062531 9.0078125 2.0019531 z "
     class="ColorScheme-Text"
     />
</svg>

<svg xmlns="http://www.w3.org/2000/svg" viewBox="0 0 16 16">
<defs id="defs3051">
<style id="current-color-scheme" type="text/css">
.ColorScheme-Text{color:#fcfcfc}
</style>
</defs>
<path d="M9.008 2.002c-1.667-.04-2.818.762-3.47 1.896-.653 1.135-.895 2.565-1.06 3.965-.164 1.4-.246 2.783-.474 3.756-.114.487-.267.862-.434 1.078s-.302.298-.58.303H2v1h1.01a1.76 1.76 0 0 0 1.351-.693c.31-.402.485-.9.616-1.46.261-1.118.334-2.509.494-3.868.16-1.36.414-2.677.933-3.58.52-.904 1.216-1.432 2.58-1.399h.012c2.318 0 3.201 1.07 3.652 2.188.33.817.263 1.266.258 1.656-1.486-.455-2.728-.52-3.597-.084-1.03.516-1.522 1.566-1.553 2.633s.355 2.191 1.082 3.078C9.565 13.357 10.665 14 12 14c1.03.01 1.453.003 2 0v-1c-.544.003-.969.01-1.996 0H12c-1.02 0-1.819-.47-2.389-1.164-.57-.695-.88-1.618-.857-2.416C9.146 6.71 12.37 7.554 14 8l-.002-.453s.136-1.352-.422-2.734c-.557-1.38-1.924-2.807-4.568-2.811" class="ColorScheme-Text" style="fill:currentColor;fill-opacity:1;stroke:none"/>
</svg>
